static/img/kroki/c90765eea3c7c29cd52b41ddc8e211ab.svg

<?xml version="1.0" encoding="us-ascii" standalone="no"?><svg xmlns="http://www.w3.org/2000/svg" xmlns:xlink="http://www.w3.org/1999/xlink" contentStyleType="text/css" height="980px" preserveAspectRatio="none" style="width:369px;height:980px;" version="1.1" viewBox="0 0 369 980" width="369px" zoomAndPan="magnify"><defs/><g><!--class aws_q_business_document--><g id="elem_aws_q_business_document"><rect codeLine="23" fill="#3D176E" height="179.2734" id="aws_q_business_document" rx="2.5" ry="2.5" style="stroke:#000D19;stroke-width:0.5;" width="355" x="7" y="633.84"/><ellipse cx="62.75" cy="653.7345" fill="#ADD1B2" rx="11" ry="11" style="stroke:#181818;stroke-width:1.0;"/><path d="M65.7188,659.3752 Q65.1406,659.672 64.5,659.8127 Q63.8594,659.9689 63.1563,659.9689 Q60.6563,659.9689 59.3281,658.3283 Q58.0156,656.672 58.0156,653.547 Q58.0156,650.422 59.3281,648.7658 Q60.6563,647.1095 63.1563,647.1095 Q63.8594,647.1095 64.5,647.2658 Q65.1563,647.422 65.7188,647.7189 L65.7188,650.4377 Q65.0938,649.8595 64.5,649.5939 Q63.9063,649.3127 63.2813,649.3127 Q61.9375,649.3127 61.25,650.3908 Q60.5625,651.4533 60.5625,653.547 Q60.5625,655.6408 61.25,656.7189 Q61.9375,657.7814 63.2813,657.7814 Q63.9063,657.7814 64.5,657.5158 Q65.0938,657.2345 65.7188,656.6564 L65.7188,659.3752 Z " fill="#000000"/><text fill="#D9B8FF" font-family="Helvetica" font-size="17" lengthAdjust="spacing" textLength="225" x="88.25" y="659.6198">aws_q_business_document</text><line style="stroke:#000D19;stroke-width:0.5;" x1="8" x2="361" y1="673.6291" y2="673.6291"/><text fill="#D9B8FF" font-family="sans-serif" font-size="14" font-weight="bold" lengthAdjust="spacing" textLength="83" x="18" y="695.6242">created_at</text><text fill="#D9B8FF" font-family="sans-serif" font-size="14" lengthAdjust="spacing" textLength="70" x="101" y="695.6242">: datetime</text><text fill="#D9B8FF" font-family="sans-serif" font-size="14" font-weight="bold" lengthAdjust="spacing" textLength="127" x="18" y="721.9211">document_error</text><text fill="#D9B8FF" font-family="sans-serif" font-size="14" lengthAdjust="spacing" textLength="206" x="145" y="721.9211">: aws_q_business_error_detail</text><text fill="#D9B8FF" font-family="sans-serif" font-size="14" font-weight="bold" lengthAdjust="spacing" textLength="100" x="18" y="748.2179">document_id</text><text fill="#D9B8FF" font-family="sans-serif" font-size="14" lengthAdjust="spacing" textLength="48" x="118" y="748.2179">: string</text><text fill="#D9B8FF" font-family="sans-serif" font-size="14" font-weight="bold" lengthAdjust="spacing" textLength="49" x="18" y="774.5148">status</text><text fill="#D9B8FF" font-family="sans-serif" font-size="14" lengthAdjust="spacing" textLength="48" x="67" y="774.5148">: string</text><text fill="#D9B8FF" font-family="sans-serif" font-size="14" font-weight="bold" lengthAdjust="spacing" textLength="87" x="18" y="800.8117">updated_at</text><text fill="#D9B8FF" font-family="sans-serif" font-size="14" lengthAdjust="spacing" textLength="70" x="105" y="800.8117">: datetime</text></g><!--class aws_q_business_error_detail--><g id="elem_aws_q_business_error_detail"><rect codeLine="30" fill="#3D176E" height="100.3828" id="aws_q_business_error_detail" rx="2.5" ry="2.5" style="stroke:#000D19;stroke-width:0.5;" width="280" x="44.5" y="873.12"/><ellipse cx="59.5" cy="893.0145" fill="#ADD1B2" rx="11" ry="11" style="stroke:#181818;stroke-width:1.0;"/><path d="M62.4688,898.6552 Q61.8906,898.952 61.25,899.0927 Q60.6094,899.2489 59.9063,899.2489 Q57.4063,899.2489 56.0781,897.6083 Q54.7656,895.952 54.7656,892.827 Q54.7656,889.702 56.0781,888.0458 Q57.4063,886.3895 59.9063,886.3895 Q60.6094,886.3895 61.25,886.5458 Q61.9063,886.702 62.4688,886.9989 L62.4688,889.7177 Q61.8438,889.1395 61.25,888.8739 Q60.6563,888.5927 60.0313,888.5927 Q58.6875,888.5927 58,889.6708 Q57.3125,890.7333 57.3125,892.827 Q57.3125,894.9208 58,895.9989 Q58.6875,897.0614 60.0313,897.0614 Q60.6563,897.0614 61.25,896.7958 Q61.8438,896.5145 62.4688,895.9364 L62.4688,898.6552 Z " fill="#000000"/><text fill="#D9B8FF" font-family="Helvetica" font-size="17" lengthAdjust="spacing" textLength="238" x="78.5" y="898.8998">aws_q_business_error_detail</text><line style="stroke:#000D19;stroke-width:0.5;" x1="45.5" x2="323.5" y1="912.9091" y2="912.9091"/><text fill="#D9B8FF" font-family="sans-serif" font-size="14" font-weight="bold" lengthAdjust="spacing" textLength="87" x="55.5" y="934.9042">error_code</text><text fill="#D9B8FF" font-family="sans-serif" font-size="14" lengthAdjust="spacing" textLength="48" x="142.5" y="934.9042">: string</text><text fill="#D9B8FF" font-family="sans-serif" font-size="14" font-weight="bold" lengthAdjust="spacing" textLength="119" x="55.5" y="961.2011">error_message</text><text fill="#D9B8FF" font-family="sans-serif" font-size="14" lengthAdjust="spacing" textLength="48" x="174.5" y="961.2011">: string</text></g><!--class aws_resource--><g id="elem_aws_resource"><rect codeLine="34" fill="#3D176E" height="74.0859" id="aws_resource" rx="2.5" ry="2.5" style="stroke:#000D19;stroke-width:0.5;" width="155" x="107" y="438.76"/><ellipse cx="122" cy="458.6545" fill="#ADD1B2" rx="11" ry="11" style="stroke:#181818;stroke-width:1.0;"/><path d="M124.9688,464.2952 Q124.3906,464.592 123.75,464.7327 Q123.1094,464.8889 122.4063,464.8889 Q119.9063,464.8889 118.5781,463.2483 Q117.2656,461.592 117.2656,458.467 Q117.2656,455.342 118.5781,453.6858 Q119.9063,452.0295 122.4063,452.0295 Q123.1094,452.0295 123.75,452.1858 Q124.4063,452.342 124.9688,452.6389 L124.9688,455.3577 Q124.3438,454.7795 123.75,454.5139 Q123.1563,454.2327 122.5313,454.2327 Q121.1875,454.2327 120.5,455.3108 Q119.8125,456.3733 119.8125,458.467 Q119.8125,460.5608 120.5,461.6389 Q121.1875,462.7014 122.5313,462.7014 Q123.1563,462.7014 123.75,462.4358 Q124.3438,462.1545 124.9688,461.5764 L124.9688,464.2952 Z " fill="#000000"/><text fill="#D9B8FF" font-family="Helvetica" font-size="17" lengthAdjust="spacing" textLength="113" x="141" y="464.5398">aws_resource</text><line style="stroke:#000D19;stroke-width:0.5;" x1="108" x2="261" y1="478.5491" y2="478.5491"/><text fill="#D9B8FF" font-family="sans-serif" font-size="14" font-weight="bold" lengthAdjust="spacing" textLength="26" x="118" y="500.5442">arn</text><text fill="#D9B8FF" font-family="sans-serif" font-size="14" lengthAdjust="spacing" textLength="48" x="144" y="500.5442">: string</text></g><!--class resource--><g id="elem_resource"><rect codeLine="37" fill="#3D176E" height="310.7578" id="resource" rx="2.5" ry="2.5" style="stroke:#000D19;stroke-width:0.5;" width="227" x="71" y="7"/><ellipse cx="139.75" cy="26.8945" fill="#ADD1B2" rx="11" ry="11" style="stroke:#181818;stroke-width:1.0;"/><path d="M142.7188,32.5352 Q142.1406,32.832 141.5,32.9727 Q140.8594,33.1289 140.1563,33.1289 Q137.6563,33.1289 136.3281,31.4883 Q135.0156,29.832 135.0156,26.707 Q135.0156,23.582 136.3281,21.9258 Q137.6563,20.2695 140.1563,20.2695 Q140.8594,20.2695 141.5,20.4258 Q142.1563,20.582 142.7188,20.8789 L142.7188,23.5977 Q142.0938,23.0195 141.5,22.7539 Q140.9063,22.4727 140.2813,22.4727 Q138.9375,22.4727 138.25,23.5508 Q137.5625,24.6133 137.5625,26.707 Q137.5625,28.8008 138.25,29.8789 Q138.9375,30.9414 140.2813,30.9414 Q140.9063,30.9414 141.5,30.6758 Q142.0938,30.3945 142.7188,29.8164 L142.7188,32.5352 Z " fill="#000000"/><text fill="#D9B8FF" font-family="Helvetica" font-size="17" lengthAdjust="spacing" textLength="71" x="165.25" y="32.7798">resource</text><line style="stroke:#000D19;stroke-width:0.5;" x1="72" x2="297" y1="46.7891" y2="46.7891"/><text fill="#D9B8FF" font-family="sans-serif" font-size="14" font-weight="bold" lengthAdjust="spacing" textLength="29" x="82" y="68.7842">age</text><text fill="#D9B8FF" font-family="sans-serif" font-size="14" lengthAdjust="spacing" textLength="66" x="111" y="68.7842">: duration</text><text fill="#D9B8FF" font-family="sans-serif" font-size="14" font-weight="bold" lengthAdjust="spacing" textLength="43" x="82" y="95.0811">atime</text><text fill="#D9B8FF" font-family="sans-serif" font-size="14" lengthAdjust="spacing" textLength="70" x="125" y="95.0811">: datetime</text><text fill="#D9B8FF" font-family="sans-serif" font-size="14" font-weight="bold" lengthAdjust="spacing" textLength="43" x="82" y="121.3779">ctime</text><text fill="#D9B8FF" font-family="sans-serif" font-size="14" lengthAdjust="spacing" textLength="70" x="125" y="121.3779">: datetime</text><text fill="#D9B8FF" font-family="sans-serif" font-size="14" font-weight="bold" lengthAdjust="spacing" textLength="14" x="82" y="147.6748">id</text><text fill="#D9B8FF" font-family="sans-serif" font-size="14" lengthAdjust="spacing" textLength="48" x="96" y="147.6748">: string</text><text fill="#D9B8FF" font-family="sans-serif" font-size="14" font-weight="bold" lengthAdjust="spacing" textLength="33" x="82" y="173.9717">kind</text><text fill="#D9B8FF" font-family="sans-serif" font-size="14" lengthAdjust="spacing" textLength="48" x="115" y="173.9717">: string</text><text fill="#D9B8FF" font-family="sans-serif" font-size="14" font-weight="bold" lengthAdjust="spacing" textLength="90" x="82" y="200.2686">last_access</text><text fill="#D9B8FF" font-family="sans-serif" font-size="14" lengthAdjust="spacing" textLength="66" x="172" y="200.2686">: duration</text><text fill="#D9B8FF" font-family="sans-serif" font-size="14" font-weight="bold" lengthAdjust="spacing" textLength="90" x="82" y="226.5654">last_update</text><text fill="#D9B8FF" font-family="sans-serif" font-size="14" lengthAdjust="spacing" textLength="66" x="172" y="226.5654">: duration</text><text fill="#D9B8FF" font-family="sans-serif" font-size="14" font-weight="bold" lengthAdjust="spacing" textLength="48" x="82" y="252.8623">mtime</text><text fill="#D9B8FF" font-family="sans-serif" font-size="14" lengthAdjust="spacing" textLength="70" x="130" y="252.8623">: datetime</text><text fill="#D9B8FF" font-family="sans-serif" font-size="14" font-weight="bold" lengthAdjust="spacing" textLength="43" x="82" y="279.1592">name</text><text fill="#D9B8FF" font-family="sans-serif" font-size="14" lengthAdjust="spacing" textLength="48" x="125" y="279.1592">: string</text><text fill="#D9B8FF" font-family="sans-serif" font-size="14" font-weight="bold" lengthAdjust="spacing" textLength="34" x="82" y="305.4561">tags</text><text fill="#D9B8FF" font-family="sans-serif" font-size="14" lengthAdjust="spacing" textLength="171" x="116" y="305.4561">: dictionary[string, string]</text></g><!--link aws_q_business_document to aws_q_business_error_detail--><g id="link_aws_q_business_document_aws_q_business_error_detail"><path codeLine="49" d="M184.5,813.56 C184.5,833.86 184.5,848.73 184.5,866.68 " fill="none" id="aws_q_business_document-to-aws_q_business_error_detail" style="stroke:#FFAF37;stroke-width:2.0;"/><polygon fill="#FFAF37" points="184.5,872.68,188.5,863.68,184.5,867.68,180.5,863.68,184.5,872.68" style="stroke:#FFAF37;stroke-width:2.0;"/></g><!--reverse link aws_resource to aws_q_business_document--><g id="link_aws_resource_aws_q_business_document"><path codeLine="50" d="M184.5,531.32 C184.5,562.93 184.5,591.97 184.5,633.43 " fill="none" id="aws_resource-backto-aws_q_business_document" style="stroke:#FFAF37;stroke-width:2.0;"/><polygon fill="none" points="184.5,513.32,178.5,531.32,190.5,531.32,184.5,513.32" style="stroke:#FFAF37;stroke-width:2.0;"/></g><!--reverse link resource to aws_resource--><g id="link_resource_aws_resource"><path codeLine="51" d="M184.5,336.18 C184.5,381.21 184.5,408.34 184.5,438.51 " fill="none" id="resource-backto-aws_resource" style="stroke:#FFAF37;stroke-width:2.0;"/><polygon fill="none" points="184.5,318.18,178.5,336.18,190.5,336.18,184.5,318.18" style="stroke:#FFAF37;stroke-width:2.0;"/></g><!--SRC=[XP9FQzj04CNl-XGBkPaAx8RMSIc5r52QImX9RwM8yUv8NgpTTMP7DUwVxzwL59VLIdPkuhsVPjxCpbOh56ZsV1G6pGR9PtwdxHu8ZBWbSeUrgns9gxA4ydgPcb-SvLU1Up0elcBz4rbBI8blMort5hqNRoFhCyXTHQwngY_F1DO72or7rBe6xs-PIMyQnYYCMcrkoZ8bqw9NrsgnV8yZp952Ua7cyxbQh5BarLONv_vFFEbVA1RnqkuTuoZcg4L7NKpP4b78qQ0d_sp61r1AsqgyYxJ7FXDPf87-j0Nb3YrTGktZDfwHqF5nZ-lHLBYwKULo4hux1sUoNPs0Wo-UYqtZTNiuXNAoCU4onEziDfE4mAWAuDdiWr3XcxN1O9oe0iFPKMicPJgzKCYWwvZNgeLzk39R1TqpSEC7KhDNKpt_JiUD-tIHUq4wXOEglMp2Br35JboMqBk697PrWEm4DaJwIgeXOErigxHHarN92ItPGdYreH1wSG5IXhX9XyxfLvGuPgAF1JDS0qFLLzIo_Gte-BttthmmFyAevouYppzTVER13Z_-oVFyt75b4zX9olu1]--></g></svg>

<svg xmlns="http://www.w3.org/2000/svg" width="369" height="980" viewBox="0 0 369 980"><rect width="355" height="179.273" x="7" y="633.84" fill="#3D176E" rx="2.5" ry="2.5" style="stroke:#000d19;stroke-width:.5"/><circle cx="62.75" cy="653.735" r="11" fill="#ADD1B2" style="stroke:#181818;stroke-width:1"/><path d="M65.719 659.375q-.578.297-1.219.438-.64.156-1.344.156-2.5 0-3.828-1.64-1.312-1.657-1.312-4.782t1.312-4.781q1.328-1.656 3.828-1.656.703 0 1.344.156.656.156 1.219.453v2.719q-.625-.578-1.219-.844-.594-.281-1.219-.281-1.343 0-2.031 1.078-.687 1.062-.687 3.156t.687 3.172q.688 1.062 2.031 1.062.625 0 1.219-.265.594-.281 1.219-.86z"/><text x="88.25" y="659.62" fill="#D9B8FF" font-family="Helvetica" font-size="17" textLength="225">aws_q_business_document</text><path d="M8 673.629h353" style="stroke:#000d19;stroke-width:.5"/><text x="18" y="695.624" fill="#D9B8FF" font-family="sans-serif" font-size="14" font-weight="bold" textLength="83">created_at</text><text x="101" y="695.624" fill="#D9B8FF" font-family="sans-serif" font-size="14" textLength="70">: datetime</text><text x="18" y="721.921" fill="#D9B8FF" font-family="sans-serif" font-size="14" font-weight="bold" textLength="127">document_error</text><text x="145" y="721.921" fill="#D9B8FF" font-family="sans-serif" font-size="14" textLength="206">: aws_q_business_error_detail</text><text x="18" y="748.218" fill="#D9B8FF" font-family="sans-serif" font-size="14" font-weight="bold" textLength="100">document_id</text><text x="118" y="748.218" fill="#D9B8FF" font-family="sans-serif" font-size="14" textLength="48">: string</text><text x="18" y="774.515" fill="#D9B8FF" font-family="sans-serif" font-size="14" font-weight="bold" textLength="49">status</text><text x="67" y="774.515" fill="#D9B8FF" font-family="sans-serif" font-size="14" textLength="48">: string</text><text x="18" y="800.812" fill="#D9B8FF" font-family="sans-serif" font-size="14" font-weight="bold" textLength="87">updated_at</text><text x="105" y="800.812" fill="#D9B8FF" font-family="sans-serif" font-size="14" textLength="70">: datetime</text><rect width="280" height="100.383" x="44.5" y="873.12" fill="#3D176E" rx="2.5" ry="2.5" style="stroke:#000d19;stroke-width:.5"/><circle cx="59.5" cy="893.014" r="11" fill="#ADD1B2" style="stroke:#181818;stroke-width:1"/><path d="M62.469 898.655q-.578.297-1.219.438-.64.156-1.344.156-2.5 0-3.828-1.64-1.312-1.657-1.312-4.782t1.312-4.781q1.328-1.657 3.828-1.657.703 0 1.344.157.656.156 1.219.453v2.719q-.625-.578-1.219-.844-.594-.281-1.219-.281-1.343 0-2.031 1.078-.687 1.062-.687 3.156t.687 3.172q.688 1.062 2.031 1.062.625 0 1.219-.265.594-.282 1.219-.86z"/><text x="78.5" y="898.9" fill="#D9B8FF" font-family="Helvetica" font-size="17" textLength="238">aws_q_business_error_detail</text><path d="M45.5 912.909h278" style="stroke:#000d19;stroke-width:.5"/><text x="55.5" y="934.904" fill="#D9B8FF" font-family="sans-serif" font-size="14" font-weight="bold" textLength="87">error_code</text><text x="142.5" y="934.904" fill="#D9B8FF" font-family="sans-serif" font-size="14" textLength="48">: string</text><text x="55.5" y="961.201" fill="#D9B8FF" font-family="sans-serif" font-size="14" font-weight="bold" textLength="119">error_message</text><text x="174.5" y="961.201" fill="#D9B8FF" font-family="sans-serif" font-size="14" textLength="48">: string</text><rect width="155" height="74.086" x="107" y="438.76" fill="#3D176E" rx="2.5" ry="2.5" style="stroke:#000d19;stroke-width:.5"/><circle cx="122" cy="458.654" r="11" fill="#ADD1B2" style="stroke:#181818;stroke-width:1"/><path d="M124.969 464.295q-.578.297-1.219.438-.64.156-1.344.156-2.5 0-3.828-1.64-1.312-1.657-1.312-4.782t1.312-4.781q1.328-1.656 3.828-1.656.703 0 1.344.156.656.156 1.219.453v2.719q-.625-.579-1.219-.844-.594-.281-1.219-.281-1.344 0-2.031 1.078-.687 1.062-.687 3.156t.687 3.172q.688 1.062 2.031 1.062.625 0 1.219-.265.594-.281 1.219-.86z"/><text x="141" y="464.54" fill="#D9B8FF" font-family="Helvetica" font-size="17" textLength="113">aws_resource</text><path d="M108 478.549h153" style="stroke:#000d19;stroke-width:.5"/><text x="118" y="500.544" fill="#D9B8FF" font-family="sans-serif" font-size="14" font-weight="bold" textLength="26">arn</text><text x="144" y="500.544" fill="#D9B8FF" font-family="sans-serif" font-size="14" textLength="48">: string</text><rect width="227" height="310.758" x="71" y="7" fill="#3D176E" rx="2.5" ry="2.5" style="stroke:#000d19;stroke-width:.5"/><circle cx="139.75" cy="26.895" r="11" fill="#ADD1B2" style="stroke:#181818;stroke-width:1"/><path d="M142.719 32.535q-.578.297-1.219.438-.64.156-1.344.156-2.5 0-3.828-1.64-1.312-1.657-1.312-4.782t1.312-4.781q1.328-1.656 3.828-1.656.703 0 1.344.156.656.156 1.219.453v2.719q-.625-.578-1.219-.844-.594-.281-1.219-.281-1.344 0-2.031 1.078-.687 1.062-.687 3.156t.687 3.172q.688 1.062 2.031 1.062.625 0 1.219-.265.594-.281 1.219-.86z"/><text x="165.25" y="32.78" fill="#D9B8FF" font-family="Helvetica" font-size="17" textLength="71">resource</text><path d="M72 46.789h225" style="stroke:#000d19;stroke-width:.5"/><text x="82" y="68.784" fill="#D9B8FF" font-family="sans-serif" font-size="14" font-weight="bold" textLength="29">age</text><text x="111" y="68.784" fill="#D9B8FF" font-family="sans-serif" font-size="14" textLength="66">: duration</text><text x="82" y="95.081" fill="#D9B8FF" font-family="sans-serif" font-size="14" font-weight="bold" textLength="43">atime</text><text x="125" y="95.081" fill="#D9B8FF" font-family="sans-serif" font-size="14" textLength="70">: datetime</text><text x="82" y="121.378" fill="#D9B8FF" font-family="sans-serif" font-size="14" font-weight="bold" textLength="43">ctime</text><text x="125" y="121.378" fill="#D9B8FF" font-family="sans-serif" font-size="14" textLength="70">: datetime</text><text x="82" y="147.675" fill="#D9B8FF" font-family="sans-serif" font-size="14" font-weight="bold" textLength="14">id</text><text x="96" y="147.675" fill="#D9B8FF" font-family="sans-serif" font-size="14" textLength="48">: string</text><text x="82" y="173.972" fill="#D9B8FF" font-family="sans-serif" font-size="14" font-weight="bold" textLength="33">kind</text><text x="115" y="173.972" fill="#D9B8FF" font-family="sans-serif" font-size="14" textLength="48">: string</text><text x="82" y="200.269" fill="#D9B8FF" font-family="sans-serif" font-size="14" font-weight="bold" textLength="90">last_access</text><text x="172" y="200.269" fill="#D9B8FF" font-family="sans-serif" font-size="14" textLength="66">: duration</text><text x="82" y="226.565" fill="#D9B8FF" font-family="sans-serif" font-size="14" font-weight="bold" textLength="90">last_update</text><text x="172" y="226.565" fill="#D9B8FF" font-family="sans-serif" font-size="14" textLength="66">: duration</text><text x="82" y="252.862" fill="#D9B8FF" font-family="sans-serif" font-size="14" font-weight="bold" textLength="48">mtime</text><text x="130" y="252.862" fill="#D9B8FF" font-family="sans-serif" font-size="14" textLength="70">: datetime</text><text x="82" y="279.159" fill="#D9B8FF" font-family="sans-serif" font-size="14" font-weight="bold" textLength="43">name</text><text x="125" y="279.159" fill="#D9B8FF" font-family="sans-serif" font-size="14" textLength="48">: string</text><text x="82" y="305.456" fill="#D9B8FF" font-family="sans-serif" font-size="14" font-weight="bold" textLength="34">tags</text><text x="116" y="305.456" fill="#D9B8FF" font-family="sans-serif" font-size="14" textLength="171">: dictionary[string, string]</text><path fill="none" d="M184.5 813.56v53.12" style="stroke:#ffaf37;stroke-width:2"/><path fill="#FFAF37" d="m184.5 872.68 4-9-4 4-4-4z" style="stroke:#ffaf37;stroke-width:2"/><path fill="none" d="M184.5 531.32v102.11m0-120.11-6 18h12zm0-177.14v102.33m0-120.33-6 18h12z" style="stroke:#ffaf37;stroke-width:2"/></svg>
